!!!OTL: ES STEHT EIN SCHLOSS IN OESTERREICH
!!!ARE: Europa, Mitteleuropa, Deutschland, Pommern, Tantow, Rosow
!!!SCT: E0061G
!!!YEM: Copyright 1995, estate of Helmut Schaffrath.
**kern
*ICvox
*Ivox
*M3/4
*k[f#c#]
*D:
{8d
=1
8d
8f#
4a
8g
8e
=2
8d
8f#
4f#
8e}
{8d
=3
8d
8f#
4a
8g
8f#
=4
4f#
4e
8r}
{8a
=5
8a
8ff#
8ff#
8cc#
8dd
8f#
=6
8f#
8ee
4ee
8r}
{8dd
=7
8cc#
8b
8a
8g
8b
8c#
=8
4e
4d
8r}
==
!!!AGN: erzaehlendes Volks - Lied, Sage, Mord, Ballade ?
!!!ONB: ESAC (Essen Associative Code) Database: ERK1
!!!AMT: simple triple
!!!AIN: vox
!!!EED: Helmut Schaffrath
!!!EEV: 1.0
*-
